X:1
T:Liverpool (Davis), CM
T:Liverpool (Davis), CM
T:Attributed to Martin C. H. Davis, 19th Century
T:Public Domain Courtesy of the Cyber Hymnal™
C:Attributed to Martin C. H. Davis, 19th Century
Z:Public Domain
Z:Courtesy of the Cyber Hymnal™
%%score ( 1 2 ) ( 3 4 )
L:1/8
Q:1/4=115
M:3/2
K:D
V:1 treble 
V:2 treble 
V:3 bass 
V:4 bass 
V:1
 D4 | [CE]2 [DF]2 [EA]4 [DB]4 | [CA]2 (FE) D4 A4 | [Dd]2 [Fd]2 [Ec]4 (B2 A2) | [FB]8 [GB]4 | %5
 [EA]2 [EB]2 [Fd]4 [EA]4 | F2 [FB]2 [FA]4 B3 (z A) | [DF]2 D2 [B,E]4 [CE]4 | D8 |] %9
V:2
 D4 | x12 | x2 C2 D4 D2 C2 | x8 F4 | x12 | x12 | F2 x4 F2 E2 x3 | x2 D2 x8 | D8 |] %9
V:3
 [F,A,]4 | [E,G,]2 [D,F,]2 [C,E,]4 [B,,F,]4 | [F,,A,]2 [A,,A,]2 [D,F,]4 [E,G,]4 | %3
 [F,A,]2 [D,A,]2 A,4 [F,C]4 | [B,,D]8 [G,D]4 | [A,C]2 [G,B,]2 [D,A,]4 [C,A,]4 | %6
 [D,A,]2 [B,,D]2 [F,C]4 (D2 C2) x | [B,,B,]2 [A,,F,]2 (G,2 F,2) [A,,E,]4 | [D,F,]8 |] %9
V:4
 x4 | x12 | x12 | x4 A,4 x4 | x12 | x12 | x8 B,,4 x | x4 G,,4 x4 | x8 |] %9

